X: 1577
T: Jack's Jig
C:Trish Barker
B: australian traditional tunes wiki
M:6/8
L:1/8
R: Jig
Q: 3/8=100
K:G
V:1 
B/c/|"G"d2B "C"efg|"G"d2c BAG|"C"cBA"G"B2G|"D"A2G FED|
"G"d2B "C"efg|"G"d2cB2d|"A7"efg"D"a2f|"G"g3-g2:|
|:f|"G"gdB "Am"ecA|"G"dBG "D"AFD|"C"C2DE2F|"G"G2AB2c|
"G"d2B "C"efg|"G"d2cB2d|"C"efg"D"a2f|"G"g3-g2:|
% abcbook-tune_id 6342d53ab11c086139b3af83


% abcbook-boost 0
% abcbook-tablature 
% abcbook-transpose 
% abcbook-lastupdated 1665324372024
% abcbook-soundfonts 
% abcbook-repeats 1
% NFF Book 2016

